X: 24386
T: Lovely Leitrim
R: waltz
M: 3/4
K: Dmajor
F2|A4 B2|F4 A2|B4 e2|d4 B2|
A2 F4|E4 F2|D6|D4 A2||
|:d4 c2|d4 e2|d4 c2|B4 A2|
B4 e2|d2 c2 B2|1 A6|A4 A2:|2 A6|A2 D2 F2||
A4 B2|F4 A2|B4 e2|d4 B2|
A2 F4|E4 F2|D6|D4 F2||

